src/components/Icon/svg-icon/main/mention-group.svg

<svg xmlns="http://www.w3.org/2000/svg" width="24" height="24"><path fill="#677078" d="M1 5h2v14H1V5zm4 0h2v14H5V5zm17 0H10c-.55 0-1 .45-1 1v12c0 .55.45 1 1 1h12c.55 0 1-.45 1-1V6c0-.55-.45-1-1-1zM11 15h5v2h-5v-2zm0-4h10v2H11v-2zm0-4h10v2H11V7z"/></svg>

<svg xmlns="http://www.w3.org/2000/svg" width="24" height="24" viewBox="0 0 24 24">
  <path fill="#677078" d="M1,5 L3,5 L3,19 L1,19 L1,5 Z M5,5 L7,5 L7,19 L5,19 L5,5 Z M22,5 L10,5 C9.45,5 9,5.45 9,6 L9,18 C9,18.55 9.45,19 10,19 L22,19 C22.55,19 23,18.55 23,18 L23,6 C23,5.45 22.55,5 22,5 Z M11,15 L16,15 L16,17 L11,17 L11,15 Z M11,11 L21,11 L21,13 L11,13 L11,11 Z M11,7 L21,7 L21,9 L11,9 L11,7 Z"/>
</svg>
